!!!OTL-incipit: FRITZ STEFF DER STEHT HUEBSCH FEINE
!!!ARE: Europa, Mitteleuropa, Deutschland, Kuhlaendchen
!!!SCT: Z0241
!!!YEM: Copyright 1995, estate of Helmut Schaffrath.
**kern	**text
*ICvox	*
*M2/4	*
*k[f#]	*
*G:	*
!LO:TX:a:t=Aus dem Kuhländchen.	!
{8d	Fritʒ
=1	=1
8g	Steff
8g	der
8b/	ſteht
8g	hübſch
=2	=2
4dd	fei-
16eeL	-ne,
16ddJ}	.
{8b	ar
=3	=3
8dd	tret
8dd	an
16ddL	ſchwarʒ-
16ccJ	.
8a	-braun
=4	=4
8g	Hü-
8g	-te-
8b/}	-lein,
{8d	das
=5	=5
8g	Hüt-
8g	-lein
16bL	ſteht
16aJ	.
8g	ihm
=6	=6
4dd	bra-
16eeL	-ve,
16ddJ}	.
{8b	die
=7	=7
8dd	Sien'
8dd	die
16ddL	hot
16ccJ	.
8a	ihn
=8	=8
4f#	ger-
8g}	-ne.
==	==
!!!AGN: Handwerker - Lied, bei der Arbeit (Flachsbrechen) ; Brechhaus - Lied
!!!ONB: ESAC (Essen Associative Code) Database: ZUCCAL
!!!AMT: simple duple
!!!AIN: vox
!!!EED: Helmut Schaffrath
!!!EEV: 1.0
!!!GTL: III. Soldaten-, Jaeger-, Schiffer-, Fuhrmanns- und Handwerks-Lieder.
!!!URL-scan: https://www.digitale-sammlungen.de/de/view/bsb11160571?page=451
!!!ENC: Anna Maria Matuszewska
!!!EEV: 2025/01/29
*-	*-
